plasma/desktoptheme/icons/mail.svg

<?xml version="1.0" encoding="UTF-8" standalone="no"?>
<svg
   width="22"
   height="22"
   enable-background="new"
   version="1.1"
   id="svg935"
   sodipodi:docname="mail.svg"
   inkscape:version="1.2.2 (b0a8486541, 2022-12-01)"
   xmlns:inkscape="http://www.inkscape.org/namespaces/inkscape"
   xmlns:sodipodi="http://sodipodi.sourceforge.net/DTD/sodipodi-0.dtd"
   xmlns:xlink="http://www.w3.org/1999/xlink"
   xmlns="http://www.w3.org/2000/svg"
   xmlns:svg="http://www.w3.org/2000/svg">
  <sodipodi:namedview
     id="namedview937"
     pagecolor="#ffffff"
     bordercolor="#666666"
     borderopacity="1.0"
     inkscape:showpageshadow="2"
     inkscape:pageopacity="0.0"
     inkscape:pagecheckerboard="0"
     inkscape:deskcolor="#d1d1d1"
     showgrid="false"
     inkscape:zoom="10.727273"
     inkscape:cx="30.29661"
     inkscape:cy="11.186441"
     inkscape:window-width="1920"
     inkscape:window-height="1012"
     inkscape:window-x="0"
     inkscape:window-y="32"
     inkscape:window-maximized="1"
     inkscape:current-layer="svg935" />
  <defs
     id="defs914">
    <style
       id="current-color-scheme"
       type="text/css">.ColorScheme-Text { color:#333333; } .ColorScheme-Highlight { color:#5294e2; } .ColorScheme-ButtonBackground { color:#333333; }</style>
  </defs>
  <g
     id="mail-unread"
     transform="translate(-467 -135)">
    <path
       d="m467 135h22v22h-22z"
       opacity="0"
       id="path916" />
    <path
       id="path918"
       class="ColorScheme-Text"
       d="M 472 140 C 470.892 140 470 140.892 470 142 L 470 150 C 470 151.108 470.892 152 472 152 L 484 152 C 485.108 152 486 151.108 486 150 L 486 142 C 486 140.892 485.108 140 484 140 L 472 140 z M 472 142 L 484 142 L 484 150 L 472 150 L 472 145.39258 L 477.99805 147 L 483.99805 145.39258 L 483.99805 143.32227 L 477.99805 144.92969 L 472 143.32227 L 472 142 z "
       fill="currentColor" />
  </g>
  <g
     id="mail-unread-new">
    <path
       d="M 30,0 H 52 V 22 H 30 Z"
       opacity="0"
       id="path662" />
    <path
       id="path664"
       class="ColorScheme-Text"
       d="m 35,5 c -1.107999,0 -2,0.8920011 -2,2 v 8 c 0,1.107999 0.892001,2 2,2 h 9.767578 A 3,3 0 0 1 44,15 H 35 V 10.392578 L 41,12 47,10.392578 V 12 a 3,3 0 0 1 2,0.763672 V 7 C 49,5.8920011 48.107999,5 47,5 Z m 0,2 H 47 V 8.3222656 L 41,9.9296875 35,8.3222656 Z"
       fill="currentColor" />
    <path
       class="ColorScheme-Highlight"
       d="m 47,13 a 2,2 0 0 0 -2,2 2,2 0 0 0 2,2 2,2 0 0 0 2,-2 2,2 0 0 0 -2,-2 z"
       fill="currentColor"
       id="path668"
       style="color:#5294e2" />
  </g>
  <use
     id="mail-mark-unread-new"
     transform="translate(27)"
     xlink:href="#mail-unread-new" />
</svg>

<svg width="22" height="22" enable-background="new" version="1.1" xmlns="http://www.w3.org/2000/svg" xmlns:xlink="http://www.w3.org/1999/xlink">
 <defs>
  <style id="current-color-scheme" type="text/css">.ColorScheme-Text { color:#333333; } .ColorScheme-Highlight { color:#5294e2; } .ColorScheme-ButtonBackground { color:#333333; }</style>
 </defs>
 <g id="mail-unread" transform="translate(-467 -135)">
  <path d="m467 135h22v22h-22z" opacity="0"/>
  <path class="ColorScheme-Text" d="m472 140c-1.108 0-2 0.892-2 2v8c0 1.108 0.892 2 2 2h12c1.108 0 2-0.892 2-2v-8c0-1.108-0.892-2-2-2zm0 2h12v8h-12v-6z" color="#333333" fill="currentColor"/>
  <path class="ColorScheme-Text" transform="rotate(15)" d="m493.01 16.276 0.53584 1.9998 6.2116-2.64e-4 5.3795-3.1056-0.53584-1.9998-5.3795 3.1056z" color="#333333" fill="currentColor"/>
 </g>
 <g id="mail-unread-new" enable-background="new">
  <path d="m30 0h22v22h-22z" opacity="0"/>
  <path class="ColorScheme-Text" d="m35 5c-1.108 0-2 0.892-2 2v8c0 1.108 0.892 2 2 2h9.7676a3 3 0 0 1-0.76758-2h-9v-8h12v5a3 3 0 0 1 2 0.76367v-5.7637c0-1.108-0.892-2-2-2z" color="#333333" fill="currentColor"/>
  <path class="ColorScheme-Text" d="m35 8.3223 4e-6 2.0703 6 1.6074 6-1.6074-4e-6 -2.0703-6 1.6074z" color="#333333" fill="currentColor"/>
  <path class="ColorScheme-Highlight" d="m47 13a2 2 0 0 0-2 2 2 2 0 0 0 2 2 2 2 0 0 0 2-2 2 2 0 0 0-2-2z" color="#5294e2" fill="currentColor"/>
 </g>
 <use transform="translate(27)" xlink:href="#mail-unread-new-7"/>
 <use id="mail-mark-unread-new" transform="translate(38.389)" xlink:href="#mail-unread-new"/>
</svg>
